resources/haticons/SVG/grading.svg

<!-- Generated by IcoMoon.io -->
<svg version="1.1" xmlns="http://www.w3.org/2000/svg" width="24" height="24" viewBox="0 0 24 24">
<title>grading</title>
<path d="M3.984 6.984h16.031v2.016h-16.031v-2.016zM3.984 12.984h16.031v-1.969h-16.031v1.969zM3.984 17.016h7.031v-2.016h-7.031v2.016zM3.984 21h7.031v-2.016h-7.031v2.016zM15.422 18.188l-1.406-1.453-1.406 1.406 2.813 2.859 4.594-4.594-1.453-1.406zM3.984 3v2.016h16.031v-2.016h-16.031z"></path>
</svg>

<svg xmlns="http://www.w3.org/2000/svg" width="24" height="24"><path d="M3.984 6.984h16.031V9H3.984V6.984zm0 6h16.031v-1.969H3.984v1.969zm0 4.032h7.031V15H3.984v2.016zm0 3.984h7.031v-2.016H3.984V21zm11.438-2.812l-1.406-1.453-1.406 1.406L15.423 21l4.594-4.594L18.564 15zM3.984 3v2.016h16.031V3H3.984z"/></svg>
